assets/illustrations/multisize/72/audiowatermark.svg

<svg data-name="ICONS" xmlns="http://www.w3.org/2000/svg" viewBox="0 0 72 72"><path d="M27.965 13v41.067c-2.281-2.597-6.344-4.333-10.992-4.333-7.145 0-12.938 4.09-12.938 9.133S9.828 68 16.973 68s12.992-4.089 12.992-9.133V15l36-8v37.872c-2.292-2.563-6.328-4.27-10.938-4.27-7.146 0-12.938 4.088-12.938 9.132s5.792 9.133 12.938 9.133c7.018 0 12.737-3.947 12.938-8.867V4zM16.973 66c-5.929 0-10.938-3.266-10.938-7.133s5.009-7.133 10.938-7.133 10.939 3.267 10.939 7.133S22.901 66 16.973 66zm38.054-9.133c-5.93 0-10.939-3.266-10.939-7.133s5.01-7.132 10.939-7.132 10.938 3.266 10.938 7.132-5.01 7.133-10.938 7.133z" fill="#949494"/></svg>

<svg id="ICONS" xmlns="http://www.w3.org/2000/svg" viewBox="0 0 72 72"><defs><style>.cls-1{fill:#a6a6a6;}</style></defs><title>Artboard 231</title><path class="cls-1" d="M28,13V54.07c-2.28-2.6-6.34-4.33-11-4.33C9.83,49.73,4,53.82,4,58.87S9.83,68,17,68s13-4.09,13-9.13V15L66,7V44.87C63.67,42.31,59.64,40.6,55,40.6c-7.15,0-12.94,4.09-12.94,9.13S47.88,58.87,55,58.87,67.76,54.92,68,50V4ZM17,66C11,66,6,62.73,6,58.87S11,51.73,17,51.73,27.91,55,27.91,58.87,22.9,66,17,66ZM55,56.87c-5.93,0-10.94-3.27-10.94-7.13S49.1,42.6,55,42.6,66,45.87,66,49.73,61,56.87,55,56.87Z"/></svg>
